X:1
T:Title
%%score { ( 1 4 ) | ( 2 3 ) }
L:1/8
M:4/4
K:Ab
V:1 treble nm="Grand Piano"
V:4 treble 
V:2 bass 
V:3 bass 
V:1
 z4 z2[Q:1/4=100] E>E | [Ec]2 [=D_c]>=c [Fd]2 [Ec]>E | [DF]2 [DF]>F [DB]2 [DA]>A | %3
 [EG]3 [=DF] E2 [Ed]2 | [Ec]6 E2 | [Ec]2 [=D_c]>=c [Fd]2 [Ec]>E | [DF]2 [DF]>F [=DB]2 [DA]>A | %7
 [EG]3 [=DF] [_DE]2 [DB]2 |[M:7/8] [CA-]2 [_CA-]2 [=CA]2- [C-A]/C/ |[M:1/4] A>A |[M:4/4] d6 z2 | %11
 [Ec]6 z2 | [=Dc]2 [DB][DA] D- [DG]2 [DA] |[M:9/8] B6- B z z |[M:4/4] [CE]2 [EA]>B c2 [CE][CE] | %15
[M:9/8] [DF]2 [FB]- [FB]/[Fc]/ [Fd]2- [Fd][Ec][EB] | %16
[M:4/4] [Ee]2 [FA][Fd] [Ec]3 [DB][Q:1/4=99][Q:1/4=97][Q:1/4=96][Q:1/4=94][Q:1/4=93][Q:1/4=91][Q:1/4=90][Q:1/4=88][Q:1/4=87][Q:1/4=85][Q:1/4=84][Q:1/4=82][Q:1/4=81][Q:1/4=79][Q:1/4=78][Q:1/4=76] | %17
[M:7/8] [CA-]2 A- A- A3 |] %18
V:2
 z4 z2 C>C | A,,E, .F,>E A,,E, .A,>C | D,F, .A,>D B,,F, .B,>D | E,G,B,G, G,E,[G,B,]E, | %4
 A,F,E,C, A,,2 C2 | A,,E, .F,>E A,,E, .A,>C | D,G, .A,>D B,,F, .B,>=D | E,G,B,A, G,F,E,G, | %8
[M:7/8] z E,=D, F, E,3 |[M:1/4][K:treble] _G>G |[M:4/4] F6[K:bass] z2 | %11
 [A,,A,]2 C,E, A,2 z [A,,A,] | [B,,A,]2 [B,,G,][B,,F,] z G,2 [B,,F,] | %13
[M:9/8] [G,D]2 G, B, D2- D[E,G,D][E,G,D] |[M:4/4] [A,,A,]2 [C,A,]>[E,G,E] [A,E]2 [A,,A,][A,,A,] | %15
[M:9/8] [D,A,]2 [D,A,]- [D,A,]/[C,=A,]/ [B,,B,]2- [B,,B,][E,G,][D,G,] | %16
[M:4/4] [C,A,]2 [F,C][B,,B,] [E,F,]3 [E,G,] |[M:7/8] z E,=D, F, E,3 |] %18
V:3
 x8 | z2 z E, z2 z E, | z2 z F, z2 z F, | x8 | x8 | z2 z E, z2 z E, | z2 z F, z2 z F, | x8 | %8
[M:7/8] A,,-A,,-A,,- A,,- A,,3 |[M:1/4][K:treble] x2 | %10
[M:4/4] z2[K:bass] D,>D, D,[D,A,][D,A,][D,A,] | x8 | z4 B,,4 |[M:9/8] E,6- E, z z |[M:4/4] x8 | %15
[M:9/8] x9 |[M:4/4] x8 |[M:7/8] A,,-A,,-A,,- A,,- A,,3 |] %18
V:4
 x8 | x8 | x8 | x8 | x8 | x8 | x8 | x8 |[M:7/8] A, z z z z z2 |[M:1/4] x2 | %10
[M:4/4] z2 A,>A, A,[Fd][FA][=EB] | z2 A,A, z2 z [Ec] | z4 .[A,F]2 z2 |[M:9/8] z2 E F G2- GEE | %14
[M:4/4] x8 |[M:9/8] x9 |[M:4/4] x8 |[M:7/8] A, z _C2 =C3 |] %18

